src/images/bg-mobile.svg

<svg width="505" height="800" fill="none" xmlns="http://www.w3.org/2000/svg"><path fill="#fff" d="M0 0h500v800H0z"/><path d="M469.653 339.662l.001.003c5.423 8.393 6.766 15.074 6.777 15.128.001.002.001.001.003.002h.002c.042-.037 5.146-4.551 14.539-7.966l.001-.001v-.002c-5.425-8.394-6.767-15.073-6.778-15.128 0-.002-.001-.001-.002-.001-.002-.001-.002-.002-.003-.001-.042.037-5.147 4.55-14.538 7.965l-.002.001z" fill="#84CFCB"/><path d="M451.099 611.952v-.001c-6.127-7.895-8.043-14.434-8.059-14.489l-.002-.001h-.003c-.04.041-4.735 4.978-13.798 9.19l-.001.001v.001c6.129 7.894 8.042 14.434 8.058 14.489l.003.001h.003c.039-.041 4.737-4.978 13.798-9.19l.001-.001z" fill="#EFE1D4"/><path d="M476.498 648.655v-.001c-6.127-7.894-8.042-14.433-8.058-14.488-.001-.002-.001-.001-.003-.001-.001-.001-.001-.002-.003-.001-.039.042-4.734 4.978-13.798 9.191v.001.001c6.128 7.895 8.042 14.433 8.058 14.488.001.002.001.001.003.001.001 0 .001.002.003 0 .039-.041 4.735-4.977 13.798-9.19v-.001z" fill="#FFED90"/><path d="M411.707 632.949v-.001c-6.127-7.894-8.042-14.433-8.058-14.488-.001-.002-.001-.001-.003-.001s-.002-.002-.003 0c-.039.041-4.734 4.978-13.798 9.19l-.001.001.001.001c6.128 7.895 8.042 14.433 8.058 14.488 0 .002.001.001.003.001.001 0 .001.002.002 0 .04-.041 4.736-4.977 13.798-9.19l.001-.001z" fill="#84CFCB"/><path d="M437.111 669.654v-.001c-6.126-7.895-8.043-14.434-8.059-14.489l-.002-.001h-.003c-.039.041-4.735 4.978-13.798 9.19l-.001.001v.001c6.129 7.895 8.043 14.434 8.059 14.488 0 .002.001.001.002.001.002.001.002.002.003.001.039-.042 4.737-4.978 13.798-9.191h.001z" fill="#EFE1D4"/><path d="M462.511 706.357v-.001c-6.128-7.894-8.042-14.434-8.058-14.489l-.003-.001h-.003c-.039.041-4.735 4.979-13.798 9.19v.001.001c6.128 7.895 8.042 14.434 8.058 14.488 0 .002.001.001.003.001.001.001.001.002.003.001.039-.042 4.735-4.978 13.798-9.19v-.001z" fill="#FFED90"/><path d="M397.72 690.651v-.001c-6.128-7.893-8.043-14.434-8.059-14.488 0-.002-.001-.001-.002-.001-.002-.001-.002-.002-.003-.001-.039.042-4.735 4.979-13.798 9.191h-.001v.001c6.129 7.895 8.043 14.434 8.059 14.489l.002.001h.003c.039-.041 4.736-4.977 13.798-9.19l.001-.001z" fill="#84CFCB"/><path d="M423.125 727.356l-.001-.002c-6.126-7.893-8.042-14.433-8.058-14.488l-.003-.001h-.002c-.04.041-4.735 4.979-13.798 9.19l-.001.002v.002c6.129 7.893 8.042 14.432 8.058 14.486.001.002.001.001.003.001.002.001.002.002.003.001.039-.042 4.737-4.977 13.797-9.189l.002-.002z" fill="#EFE1D4"/><path d="M448.524 764.06v-.001c-6.128-7.895-8.043-14.435-8.058-14.49l-.003-.001h-.003c-.039.041-4.735 4.979-13.798 9.191l-.001.001v.001c6.129 7.894 8.043 14.433 8.059 14.488l.002.001h.003c.039-.041 4.736-4.978 13.798-9.189l.001-.001z" fill="#FFED90"/><path d="M383.733 748.354v-.001c-6.128-7.894-8.042-14.434-8.058-14.489-.001-.002-.002-.001-.003-.001-.002-.001-.002-.002-.003-.001-.039.042-4.735 4.98-13.798 9.192l-.001.001v.001c6.129 7.894 8.043 14.432 8.059 14.487 0 .002.001.001.002.001.002 0 .002.002.003 0 .04-.041 4.736-4.977 13.798-9.189l.001-.001zM453.669 459.842v-.002c-6.127-7.893-8.042-14.432-8.058-14.487l-.003-.001h-.003c-.039.041-4.734 4.978-13.797 9.189l-.001.002v.002c6.129 7.893 8.042 14.433 8.058 14.488l.003.001h.002c.04-.041 4.736-4.979 13.798-9.19l.001-.002z" fill="#84CFCB"/><path d="M479.074 496.547l-.001-.002c-6.126-7.893-8.042-14.432-8.058-14.487l-.003-.001h-.003c-.039.041-4.734 4.978-13.797 9.189l-.001.001v.002c6.129 7.894 8.042 14.433 8.058 14.488.001.002.001.001.003.001.001 0 .001.002.003 0 .039-.041 4.737-4.978 13.797-9.189l.002-.002z" fill="#EFE1D4"/><path d="M501.474 533.25c-6.128-7.894-8.043-14.434-8.059-14.489 0-.002-.001-.001-.002-.001-.002 0-.002-.002-.003 0-.04.041-4.735 4.978-13.798 9.189l-.001.002v.002c6.129 7.893 8.043 14.432 8.058 14.487.001.002.002.001.003.001.002 0 .002.002.003 0 .039-.041 4.736-4.978 13.796-9.188l.003-.003" fill="#FFED90"/><path d="M439.682 517.544c-6.127-7.894-8.042-14.434-8.058-14.489l-.003-.001h-.003c-.039.041-4.734 4.979-13.797 9.19l-.002.001.001.002c6.129 7.893 8.042 14.432 8.058 14.487 0 .002.001.001.003.001.001.001.001.002.003.001.039-.042 4.735-4.979 13.796-9.189l.002-.003" fill="#84CFCB"/><path d="M465.086 554.249v-.002c-6.126-7.893-8.042-14.433-8.058-14.488l-.003-.001h-.003c-.039.041-4.734 4.979-13.797 9.19a.002.002 0 00-.002.002l.001.002c6.129 7.892 8.042 14.432 8.058 14.487l.003.001h.002c.04-.041 4.738-4.978 13.798-9.189l.001-.002z" fill="#EFE1D4"/><path d="M490.486 590.954v-.002c-6.128-7.894-8.042-14.434-8.058-14.489-.001-.002-.001-.001-.003-.001s-.002-.002-.003 0c-.039.041-4.735 4.979-13.798 9.191l-.001.001v.001c6.129 7.894 8.043 14.434 8.059 14.488 0 .002.001.001.002.001.002.001.002.002.003.001.039-.042 4.736-4.979 13.798-9.191h.001z" fill="#FFED90"/><path d="M425.694 575.248v-.001c-6.127-7.895-8.042-14.435-8.058-14.49 0-.002-.001-.001-.003-.001-.001 0-.001-.002-.003 0-.039.041-4.734 4.979-13.798 9.191l-.001.001.001.001c6.129 7.894 8.042 14.434 8.058 14.488 0 .002.001.001.003.001.001.001.001.002.002.001.04-.042 4.737-4.979 13.799-9.191zM467.657 402.141l-.001-.003c-6.127-7.892-8.041-14.432-8.057-14.487-.001-.002-.001-.001-.003-.001-.002-.001-.002-.002-.003-.001-.039.042-4.735 4.98-13.797 9.19l-.002.002.001.003c6.128 7.893 8.042 14.432 8.058 14.487 0 .002.001.001.002.001.002.001.002.002.003.001.039-.042 4.736-4.979 13.797-9.19l.002-.002z" fill="#84CFCB"/><path d="M493.061 438.843c-6.126-7.893-8.042-14.433-8.058-14.488-.001-.002-.001-.001-.003-.001-.002-.001-.002-.002-.003-.001-.039.042-4.735 4.979-13.797 9.19l-.002.002.001.002c6.128 7.894 8.042 14.433 8.058 14.488 0 .002.001.001.002.001.002.001.002.002.003.001.039-.042 4.737-4.979 13.797-9.19l.002-.004" fill="#EFE1D4"/></svg>

<svg width="505" height="800" viewBox="0 0 505 800" fill="none" xmlns="http://www.w3.org/2000/svg">
<rect width="500" height="800" fill="white"/>
<path d="M469.653 339.662C469.653 339.663 469.653 339.664 469.654 339.665C475.077 348.058 476.42 354.739 476.431 354.793C476.432 354.795 476.432 354.794 476.434 354.795V354.795C476.435 354.795 476.435 354.796 476.436 354.795C476.478 354.758 481.582 350.244 490.975 346.829C490.976 346.829 490.976 346.829 490.976 346.828V346.828C490.977 346.827 490.977 346.826 490.976 346.826C485.551 338.432 484.209 331.753 484.198 331.698C484.198 331.696 484.197 331.697 484.196 331.697V331.697C484.194 331.696 484.194 331.695 484.193 331.696C484.151 331.733 479.046 336.246 469.655 339.661C469.654 339.661 469.654 339.662 469.653 339.662V339.662Z" fill="#84CFCB"/>
<path d="M451.099 611.952C451.099 611.952 451.099 611.951 451.099 611.951C444.972 604.056 443.056 597.517 443.04 597.462C443.04 597.461 443.039 597.462 443.038 597.461V597.461C443.036 597.461 443.036 597.46 443.035 597.461C442.995 597.502 438.3 602.439 429.237 606.651C429.236 606.652 429.236 606.652 429.236 606.652V606.652C429.236 606.653 429.236 606.653 429.236 606.653C435.365 614.547 437.278 621.087 437.294 621.142C437.295 621.143 437.295 621.142 437.297 621.143V621.143C437.299 621.143 437.299 621.144 437.3 621.143C437.339 621.102 442.037 616.165 451.098 611.953C451.098 611.953 451.099 611.952 451.099 611.952V611.952Z" fill="#EFE1D4"/>
<path d="M476.498 648.655C476.499 648.655 476.498 648.655 476.498 648.654C470.371 640.76 468.456 634.221 468.44 634.166C468.439 634.164 468.439 634.165 468.437 634.165V634.165C468.436 634.164 468.436 634.163 468.434 634.164C468.395 634.206 463.7 639.142 454.636 643.355C454.636 643.355 454.636 643.355 454.636 643.356V643.356C454.635 643.356 454.636 643.356 454.636 643.357C460.764 651.252 462.678 657.79 462.694 657.845C462.695 657.847 462.695 657.846 462.697 657.846V657.846C462.698 657.846 462.698 657.848 462.7 657.846C462.739 657.805 467.435 652.869 476.498 648.656C476.498 648.656 476.498 648.656 476.498 648.655V648.655Z" fill="#FFED90"/>
<path d="M411.707 632.949C411.707 632.949 411.707 632.949 411.707 632.948C405.58 625.054 403.665 618.515 403.649 618.46C403.648 618.458 403.648 618.459 403.646 618.459V618.459C403.644 618.459 403.644 618.457 403.643 618.459C403.604 618.5 398.909 623.437 389.845 627.649C389.845 627.649 389.844 627.649 389.844 627.65V627.65C389.844 627.65 389.844 627.65 389.845 627.651C395.973 635.546 397.887 642.084 397.903 642.139C397.903 642.141 397.904 642.14 397.906 642.14V642.14C397.907 642.14 397.907 642.142 397.908 642.14C397.948 642.099 402.644 637.163 411.706 632.95C411.707 632.95 411.707 632.95 411.707 632.949V632.949Z" fill="#84CFCB"/>
<path d="M437.111 669.654C437.111 669.653 437.111 669.653 437.111 669.653C430.985 661.758 429.068 655.219 429.052 655.164C429.052 655.163 429.051 655.164 429.05 655.163V655.163C429.048 655.163 429.048 655.162 429.047 655.163C429.008 655.204 424.312 660.141 415.249 664.353C415.248 664.353 415.248 664.354 415.248 664.354V664.354C415.248 664.354 415.248 664.355 415.248 664.355C421.377 672.25 423.291 678.789 423.307 678.843C423.307 678.845 423.308 678.844 423.309 678.844V678.844C423.311 678.845 423.311 678.846 423.312 678.845C423.351 678.803 428.049 673.867 437.11 669.654C437.111 669.654 437.111 669.654 437.111 669.654V669.654Z" fill="#EFE1D4"/>
<path d="M462.511 706.357C462.511 706.356 462.511 706.356 462.511 706.356C456.383 698.462 454.469 691.922 454.453 691.867C454.452 691.866 454.452 691.867 454.45 691.866V691.866C454.449 691.866 454.448 691.865 454.447 691.866C454.408 691.907 449.712 696.845 440.649 701.056C440.649 701.056 440.649 701.057 440.649 701.057V701.057C440.648 701.057 440.649 701.058 440.649 701.058C446.777 708.953 448.691 715.492 448.707 715.546C448.707 715.548 448.708 715.547 448.71 715.547V715.547C448.711 715.548 448.711 715.549 448.713 715.548C448.752 715.506 453.448 710.57 462.511 706.358C462.511 706.357 462.511 706.357 462.511 706.357V706.357Z" fill="#FFED90"/>
<path d="M397.72 690.651C397.72 690.651 397.72 690.65 397.72 690.65C391.592 682.757 389.677 676.216 389.661 676.162C389.661 676.16 389.66 676.161 389.659 676.161V676.161C389.657 676.16 389.657 676.159 389.656 676.16C389.617 676.202 384.921 681.139 375.858 685.351C375.857 685.351 375.857 685.351 375.857 685.351V685.351C375.857 685.352 375.857 685.352 375.857 685.352C381.986 693.247 383.9 699.786 383.916 699.841C383.916 699.842 383.917 699.841 383.918 699.842V699.842C383.92 699.842 383.92 699.843 383.921 699.842C383.96 699.801 388.657 694.865 397.719 690.652C397.72 690.652 397.72 690.651 397.72 690.651V690.651Z" fill="#84CFCB"/>
<path d="M423.125 727.356C423.125 727.356 423.125 727.355 423.124 727.354C416.998 719.461 415.082 712.921 415.066 712.866C415.066 712.865 415.065 712.866 415.063 712.865V712.865C415.062 712.865 415.062 712.864 415.061 712.865C415.021 712.906 410.326 717.844 401.263 722.055C401.262 722.055 401.262 722.056 401.262 722.057V722.057C401.261 722.057 401.262 722.058 401.262 722.059C407.391 729.952 409.304 736.491 409.32 736.545C409.321 736.547 409.321 736.546 409.323 736.546V736.546C409.325 736.547 409.325 736.548 409.326 736.547C409.365 736.505 414.063 731.57 423.123 727.358C423.124 727.358 423.124 727.357 423.125 727.356V727.356Z" fill="#EFE1D4"/>
<path d="M448.524 764.06C448.524 764.06 448.524 764.059 448.524 764.059C442.396 756.164 440.481 749.624 440.466 749.569C440.465 749.568 440.464 749.569 440.463 749.568V749.568C440.461 749.568 440.461 749.567 440.46 749.568C440.421 749.609 435.725 754.547 426.662 758.759C426.661 758.76 426.661 758.76 426.661 758.76V758.76C426.661 758.761 426.661 758.761 426.661 758.761C432.79 766.655 434.704 773.194 434.72 773.249C434.72 773.25 434.721 773.249 434.722 773.25V773.25C434.724 773.25 434.724 773.251 434.725 773.25C434.764 773.209 439.461 768.272 448.523 764.061C448.523 764.061 448.524 764.06 448.524 764.06V764.06Z" fill="#FFED90"/>
<path d="M383.733 748.354C383.733 748.354 383.733 748.354 383.733 748.353C377.605 740.459 375.691 733.919 375.675 733.864C375.674 733.862 375.673 733.863 375.672 733.863V733.863C375.67 733.862 375.67 733.861 375.669 733.862C375.63 733.904 370.934 738.842 361.871 743.054C361.87 743.054 361.87 743.054 361.87 743.055V743.055C361.87 743.055 361.87 743.056 361.87 743.056C367.999 750.95 369.913 757.488 369.929 757.543C369.929 757.545 369.93 757.544 369.931 757.544V757.544C369.933 757.544 369.933 757.546 369.934 757.544C369.974 757.503 374.67 752.567 383.732 748.355C383.732 748.355 383.733 748.355 383.733 748.354V748.354Z" fill="#84CFCB"/>
<path d="M453.669 459.842C453.67 459.842 453.669 459.841 453.669 459.84C447.542 451.947 445.627 445.408 445.611 445.353C445.61 445.352 445.61 445.353 445.608 445.352V445.352C445.607 445.352 445.606 445.351 445.605 445.352C445.566 445.393 440.871 450.33 431.808 454.541C431.807 454.541 431.807 454.542 431.807 454.543V454.543C431.806 454.543 431.807 454.544 431.807 454.545C437.936 462.438 439.849 468.978 439.865 469.033C439.865 469.034 439.866 469.033 439.868 469.034V469.034C439.869 469.034 439.869 469.035 439.87 469.034C439.91 468.993 444.606 464.055 453.668 459.844C453.669 459.844 453.669 459.843 453.669 459.842V459.842Z" fill="#84CFCB"/>
<path d="M479.074 496.547C479.074 496.546 479.074 496.546 479.073 496.545C472.947 488.652 471.031 482.113 471.015 482.058C471.014 482.057 471.014 482.058 471.012 482.057V482.057C471.011 482.057 471.01 482.056 471.009 482.057C470.97 482.098 466.275 487.035 457.212 491.246C457.211 491.246 457.211 491.247 457.211 491.247V491.247C457.21 491.248 457.211 491.249 457.211 491.249C463.34 499.143 465.253 505.682 465.269 505.737C465.27 505.739 465.27 505.738 465.272 505.738V505.738C465.273 505.738 465.273 505.74 465.275 505.738C465.314 505.697 470.012 500.76 479.072 496.549C479.073 496.548 479.073 496.548 479.074 496.547V496.547Z" fill="#EFE1D4"/>
<path d="M501.474 533.25C495.346 525.356 493.431 518.816 493.415 518.761C493.415 518.759 493.414 518.76 493.413 518.76V518.76C493.411 518.76 493.411 518.758 493.41 518.76C493.37 518.801 488.675 523.738 479.612 527.949C479.611 527.95 479.611 527.95 479.611 527.951V527.951C479.611 527.952 479.611 527.953 479.611 527.953C485.74 535.846 487.654 542.385 487.669 542.44C487.67 542.442 487.671 542.441 487.672 542.441V542.441C487.674 542.441 487.674 542.443 487.675 542.441C487.714 542.4 492.411 537.463 501.471 533.253C501.473 533.252 501.474 533.251 501.474 533.25V533.25" fill="#FFED90"/>
<path d="M439.682 517.544C433.555 509.65 431.64 503.11 431.624 503.055C431.623 503.054 431.623 503.055 431.621 503.054V503.054C431.619 503.054 431.619 503.053 431.618 503.054C431.579 503.095 426.884 508.033 417.821 512.244C417.82 512.244 417.82 512.245 417.819 512.245V512.245C417.819 512.246 417.819 512.247 417.82 512.247C423.949 520.14 425.862 526.679 425.878 526.734C425.878 526.736 425.879 526.735 425.881 526.735V526.735C425.882 526.736 425.882 526.737 425.884 526.736C425.923 526.694 430.619 521.757 439.68 517.547C439.681 517.547 439.682 517.545 439.682 517.544V517.544" fill="#84CFCB"/>
<path d="M465.086 554.249C465.086 554.249 465.086 554.248 465.086 554.247C458.96 546.354 457.044 539.814 457.028 539.759C457.027 539.758 457.027 539.759 457.025 539.758V539.758C457.023 539.758 457.023 539.757 457.022 539.758C456.983 539.799 452.288 544.737 443.225 548.948C443.224 548.948 443.223 548.949 443.223 548.95V548.95C443.223 548.95 443.223 548.951 443.224 548.952C449.353 556.844 451.266 563.384 451.282 563.439C451.282 563.44 451.283 563.439 451.285 563.44V563.44C451.286 563.44 451.286 563.441 451.287 563.44C451.327 563.399 456.025 558.462 465.085 554.251C465.085 554.251 465.086 554.25 465.086 554.249V554.249Z" fill="#EFE1D4"/>
<path d="M490.486 590.954C490.486 590.953 490.486 590.953 490.486 590.952C484.358 583.058 482.444 576.518 482.428 576.463C482.427 576.461 482.427 576.462 482.425 576.462V576.462C482.423 576.462 482.423 576.46 482.422 576.462C482.383 576.503 477.687 581.441 468.624 585.653C468.623 585.653 468.623 585.653 468.623 585.654V585.654C468.623 585.654 468.623 585.655 468.623 585.655C474.752 593.549 476.666 600.089 476.682 600.143C476.682 600.145 476.683 600.144 476.684 600.144V600.144C476.686 600.145 476.686 600.146 476.687 600.145C476.726 600.103 481.423 595.166 490.485 590.954C490.486 590.954 490.486 590.954 490.486 590.954V590.954Z" fill="#FFED90"/>
<path d="M425.694 575.248C425.694 575.247 425.694 575.247 425.694 575.247C419.567 567.352 417.652 560.812 417.636 560.757C417.636 560.755 417.635 560.756 417.633 560.756V560.756C417.632 560.756 417.632 560.754 417.63 560.756C417.591 560.797 412.896 565.735 403.832 569.947C403.832 569.947 403.832 569.948 403.831 569.948V569.948C403.831 569.948 403.831 569.949 403.832 569.949C409.961 577.843 411.874 584.383 411.89 584.437C411.89 584.439 411.891 584.438 411.893 584.438V584.438C411.894 584.439 411.894 584.44 411.895 584.439C411.935 584.397 416.632 579.46 425.694 575.248C425.694 575.248 425.694 575.248 425.694 575.248V575.248Z" fill="#84CFCB"/>
<path d="M467.657 402.141C467.657 402.14 467.657 402.139 467.656 402.138C461.529 394.246 459.615 387.706 459.599 387.651C459.598 387.649 459.598 387.65 459.596 387.65V387.65C459.594 387.649 459.594 387.648 459.593 387.649C459.554 387.691 454.858 392.629 445.796 396.839C445.795 396.84 445.794 396.84 445.794 396.841V396.841C445.794 396.842 445.794 396.843 445.795 396.844C451.923 404.737 453.837 411.276 453.853 411.331C453.853 411.333 453.854 411.332 453.855 411.332V411.332C453.857 411.333 453.857 411.334 453.858 411.333C453.897 411.291 458.594 406.354 467.655 402.143C467.656 402.142 467.657 402.142 467.657 402.141V402.141Z" fill="#84CFCB"/>
<path d="M493.061 438.843C486.935 430.95 485.019 424.41 485.003 424.355C485.002 424.353 485.002 424.354 485 424.354V424.354C484.998 424.353 484.998 424.352 484.997 424.353C484.958 424.395 480.262 429.332 471.2 433.543C471.199 433.544 471.198 433.544 471.198 433.545V433.545C471.198 433.546 471.198 433.546 471.199 433.547C477.327 441.441 479.241 447.98 479.257 448.035C479.257 448.037 479.258 448.036 479.259 448.036V448.036C479.261 448.037 479.261 448.038 479.262 448.037C479.301 447.995 483.999 443.058 493.059 438.847C493.06 438.846 493.061 438.845 493.061 438.843V438.843" fill="#EFE1D4"/>
</svg>
